X:41
T:The Grinders
O:No 41 Wm Clarke of Feltwell  MS 1858
N:Should be 9/8
I:abc2nwc
M:6/8
L:1/8
K:G
gfg edc BAG|gfg efg agf|gfg edc BAG|ABA A2B dcO:|
|:AAA A2B G2E|AAA A2B dcB|AAA A2B G2E|dBG GBc dcO:|

